svgs/light/message-text.svg

<svg xmlns="http://www.w3.org/2000/svg" viewBox="0 0 512 512"><!-- Font Awesome Pro 6.0.0-alpha2 by @fontawesome - https://fontawesome.com License - https://fontawesome.com/license (Commercial License) --><path d="M448 0H64C28.75 0 0 28.75 0 64V352.002C0 387.252 28.75 416.002 64 416.002H160V500.002C160 509.84 171.025 515.479 179.125 509.627L304 416.002H448C483.25 416.002 512 387.252 512 352.002V64C512 28.75 483.25 0 448 0ZM480 352.002C480 369.602 465.6 384.002 448 384.002H303.924C296.996 384.002 290.254 386.25 284.713 390.408L192 460.002V400.002C192 391.164 184.836 384.002 176 384.002H64C46.4 384.002 32 369.602 32 352.002V64C32 46.4 46.4 32 64 32H448C465.6 32 480 46.4 480 64V352.002ZM320 128H192C183.156 128 176 135.156 176 144S183.156 160 192 160H240V272C240 280.844 247.156 288 256 288S272 280.844 272 272V160H320C328.844 160 336 152.844 336 144S328.844 128 320 128Z"/></svg>

<svg xmlns="http://www.w3.org/2000/svg" viewBox="0 0 512 512"><!--! Font Awesome Pro 6.4.0 by @fontawesome - https://fontawesome.com License - https://fontawesome.com/license (Commercial License) Copyright 2023 Fonticons, Inc. --><path d="M192 416c0-17.7-14.3-32-32-32H64c-17.7 0-32-14.3-32-32V64c0-17.7 14.3-32 32-32H448c17.7 0 32 14.3 32 32V352c0 17.7-14.3 32-32 32H309.3c-6.9 0-13.7 2.2-19.2 6.4L192 464V416zM64 0C28.7 0 0 28.7 0 64V352c0 35.3 28.7 64 64 64h64 32v32 48c0 6.1 3.4 11.6 8.8 14.3s11.9 2.1 16.8-1.5L309.3 416H448c35.3 0 64-28.7 64-64V64c0-35.3-28.7-64-64-64H64zM192 128c-8.8 0-16 7.2-16 16s7.2 16 16 16h48V272c0 8.8 7.2 16 16 16s16-7.2 16-16V160h48c8.8 0 16-7.2 16-16s-7.2-16-16-16H256 192z"/></svg>
